outline/svg/perm_phone_msg.svg

<svg xmlns="http://www.w3.org/2000/svg" width="24" height="24"><path fill="none" d="M0 0h24v24H0V0z"/><g fill="currentColor"><path d="M20 15.5c-1.25 0-2.45-.2-3.57-.57-.1-.03-.21-.05-.31-.05-.26 0-.51.1-.71.29l-2.2 2.2a15.074 15.074 0 0 1-6.59-6.58l2.2-2.21c.28-.27.36-.66.25-1.01A11.36 11.36 0 0 1 8.5 4c0-.55-.45-1-1-1H4c-.55 0-1 .45-1 1 0 9.39 7.61 17 17 17 .55 0 1-.45 1-1v-3.5c0-.55-.45-1-1-1zM5.03 5h1.5c.07.88.22 1.75.46 2.59L5.79 8.8c-.41-1.21-.67-2.48-.76-3.8zM19 18.97c-1.32-.09-2.6-.35-3.8-.76l1.2-1.2c.85.24 1.72.39 2.6.45v1.51z"/><path d="M12 3v10l3-3h6V3h-9zm7 5h-5V5h5v3z"/></g></svg>

<?xml version="1.0" encoding="utf-8"?>
<!-- Generator: Adobe Illustrator 19.1.0, SVG Export Plug-In . SVG Version: 6.00 Build 0)  -->
<svg version="1.1" xmlns="http://www.w3.org/2000/svg" xmlns:xlink="http://www.w3.org/1999/xlink" x="0px" y="0px" width="24px"
	 height="24px" viewBox="0 0 24 24" enable-background="new 0 0 24 24" xml:space="preserve">
<g id="Bounding_Boxes">
	<g id="ui_x5F_spec_x5F_header_copy_3" display="none">
	</g>
	<path fill="none" d="M0,0h24v24H0V0z"/>
</g>
<g id="Rounded" display="none">
	<g id="ui_x5F_spec_x5F_header_copy_5">
	</g>
	<g display="inline">
		<path d="M20,3h-7c-0.55,0-1,0.45-1,1v9l3-3h5c0.55,0,1-0.45,1-1V4C21,3.45,20.55,3,20,3z"/>
		<path d="M19.23,15.26l-2.54-0.29c-0.61-0.07-1.21,0.14-1.64,0.57l-1.84,1.84c-2.83-1.44-5.15-3.75-6.59-6.59l1.85-1.85
			C8.9,8.51,9.11,7.91,9.04,7.3L8.75,4.78C8.63,3.77,7.78,3.01,6.76,3.01H5.03c-1.13,0-2.07,0.94-2,2.07
			c0.53,8.54,7.36,15.36,15.89,15.89c1.13,0.07,2.07-0.87,2.07-2v-1.73C21,16.23,20.24,15.38,19.23,15.26z"/>
	</g>
</g>
<g id="Sharp" display="none">
	<g id="ui_x5F_spec_x5F_header_copy_4">
	</g>
	<g display="inline">
		<polygon points="12,3 12,13 15,10 21,10 21,3 		"/>
		<path d="M13.21,17.37c-2.83-1.44-5.15-3.75-6.59-6.59l2.53-2.53L8.54,3H3.03C2.45,13.18,10.82,21.55,21,20.97v-5.51l-5.27-0.61
			L13.21,17.37z"/>
	</g>
</g>
<g id="Outline" fill="currentColor">
	<g id="ui_x5F_spec_x5F_header" display="none">
	</g>
	<g>
		<path d="M20,15.5c-1.25,0-2.45-0.2-3.57-0.57c-0.1-0.03-0.21-0.05-0.31-0.05c-0.26,0-0.51,0.1-0.71,0.29l-2.2,2.2
			c-2.83-1.44-5.15-3.75-6.59-6.58l2.2-2.21C9.1,8.31,9.18,7.92,9.07,7.57C8.7,6.45,8.5,5.25,8.5,4c0-0.55-0.45-1-1-1H4
			C3.45,3,3,3.45,3,4c0,9.39,7.61,17,17,17c0.55,0,1-0.45,1-1v-3.5C21,15.95,20.55,15.5,20,15.5z M5.03,5h1.5
			C6.6,5.88,6.75,6.75,6.99,7.59l-1.2,1.21C5.38,7.59,5.12,6.32,5.03,5z M19,18.97c-1.32-0.09-2.6-0.35-3.8-0.76l1.2-1.2
			c0.85,0.24,1.72,0.39,2.6,0.45V18.97z"/>
		<path d="M12,3v10l3-3h6V3H12z M19,8h-5h0V5h5V8z"/>
	</g>
</g>
<g id="Duotone" display="none">
	<g id="ui_x5F_spec_x5F_header_copy_2">
	</g>
	<g display="inline">
		<g opacity="0.3">
			<path d="M15.2,18.21c1.21,0.41,2.48,0.67,3.8,0.76v-1.5c-0.88-0.07-1.75-0.22-2.6-0.45L15.2,18.21z"/>
			<path d="M6.54,5h-1.5c0.09,1.32,0.35,2.59,0.75,3.79l1.2-1.21C6.75,6.75,6.6,5.88,6.54,5z"/>
			<polygon points="14,8 14,8 19,8 19,5 14,5 			"/>
		</g>
		<g>
			<path d="M20,15.5c-1.25,0-2.45-0.2-3.57-0.57c-0.1-0.03-0.21-0.05-0.31-0.05c-0.26,0-0.51,0.1-0.71,0.29l-2.2,2.2
				c-2.83-1.44-5.15-3.75-6.59-6.58l2.2-2.21C9.1,8.31,9.18,7.92,9.07,7.57C8.7,6.45,8.5,5.25,8.5,4c0-0.55-0.45-1-1-1H4
				C3.45,3,3,3.45,3,4c0,9.39,7.61,17,17,17c0.55,0,1-0.45,1-1v-3.5C21,15.95,20.55,15.5,20,15.5z M5.03,5h1.5
				C6.6,5.88,6.75,6.75,6.99,7.59l-1.2,1.21C5.38,7.59,5.12,6.32,5.03,5z M19,18.97c-1.32-0.09-2.6-0.35-3.8-0.76l1.2-1.2
				c0.85,0.24,1.72,0.39,2.6,0.45V18.97z"/>
			<path d="M12,3v10l3-3h6V3H12z M19,8h-5h0V5h5V8z"/>
		</g>
	</g>
</g>
<g id="Material" display="none">
	<g id="ui_x5F_spec_x5F_header_copy">
	</g>
	<path display="inline" d="M20,15.5c-1.25,0-2.45-0.2-3.57-0.57c-0.35-0.11-0.74-0.03-1.02,0.24l-2.2,2.2
		c-2.83-1.44-5.15-3.75-6.59-6.58l2.2-2.21C9.1,8.31,9.18,7.92,9.07,7.57C8.7,6.45,8.5,5.25,8.5,4c0-0.55-0.45-1-1-1H4
		C3.45,3,3,3.45,3,4c0,9.39,7.61,17,17,17c0.55,0,1-0.45,1-1v-3.5C21,15.95,20.55,15.5,20,15.5z M12,3v10l3-3h6V3H12z"/>
</g>
</svg>
